icon_installer/data/icons/scalable/actions/show-record-screen-symbolic.svg

<?xml version="1.0" encoding="UTF-8"?>
<svg height="16px" viewBox="0 0 16 16" width="16px" xmlns="http://www.w3.org/2000/svg">
    <path d="m 2.175781 0 c -1.207031 0 -2.175781 0.96875 -2.175781 2.175781 v 2.648438 c 0 1.207031 0.96875 2.175781 2.175781 2.175781 h 3.648438 c 1.207031 0 2.175781 -0.96875 2.175781 -2.175781 v -0.332031 l 1.851562 1.378906 c 0.214844 0.160156 0.5 0.183594 0.738282 0.066406 c 0.242187 -0.121094 0.390625 -0.367188 0.390625 -0.636719 v -3.601562 c 0.003906 -0.269531 -0.148438 -0.515625 -0.390625 -0.636719 c -0.238282 -0.121094 -0.527344 -0.097656 -0.742188 0.0625 l -1.847656 1.375 v -0.324219 c 0 -1.207031 -0.96875 -2.175781 -2.175781 -2.175781 z m 6.867188 7 c -0.578125 0 -1.042969 0.445312 -1.042969 1 h -0.988281 c -1.113281 0 -2.011719 0.898438 -2.011719 2.011719 v 3.976562 c 0 1.113281 0.898438 2.011719 2.011719 2.011719 h 6.976562 c 1.113281 0 2.011719 -0.898438 2.011719 -2.011719 v -3.976562 c 0 -1.113281 -0.898438 -2.011719 -2.011719 -2.011719 h -0.988281 c 0 -0.554688 -0.464844 -1 -1.042969 -1 z m 1.457031 2 c 1.378906 0 2.5 1.121094 2.5 2.5 s -1.121094 2.5 -2.5 2.5 s -2.5 -1.121094 -2.5 -2.5 s 1.121094 -2.5 2.5 -2.5 z m 0 0" fill="#222222"/>
</svg>

<svg xmlns="http://www.w3.org/2000/svg" width="16" height="16"><path fill="#222" d="M2.176 0A2.169 2.169 0 0 0 0 2.176v2.648A2.17 2.17 0 0 0 2.176 7h3.648A2.169 2.169 0 0 0 8 4.824v-.332l1.852 1.38a.708.708 0 0 0 1.129-.57V1.698a.701.701 0 0 0-.391-.637.708.708 0 0 0-.742.063L8 2.5v-.324A2.169 2.169 0 0 0 5.824 0zm6.867 7C8.465 7 8 7.445 8 8h-.988A2.009 2.009 0 0 0 5 10.012v3.976C5 15.102 5.898 16 7.012 16h6.976A2.009 2.009 0 0 0 16 13.988v-3.976A2.009 2.009 0 0 0 13.988 8H13c0-.555-.465-1-1.043-1zM10.5 9c1.379 0 2.5 1.121 2.5 2.5S11.879 14 10.5 14 8 12.879 8 11.5 9.121 9 10.5 9zm0 0"/></svg>
